dist/svg/sphere.svg

<!-- Generated by Trend Micro Style Portal -->
<svg version="1.1" xmlns="http://www.w3.org/2000/svg" width="16" height="16" viewBox="0 0 16 16">
  <title>sphere</title>
  <path fill="rgb(34,34,34)" d="M8 0c-4.418 0-8 3.582-8 8s3.582 8 8 8c4.418 0 8-3.582 8-8v0c-0-4.418-3.582-8-8-8h-0zM13.798 4.085c0.662 0.962 1.091 2.13 1.182 3.393l0.001 0.022h-4.002c-0.022-0.973-0.113-1.906-0.267-2.818l0.016 0.114c1.162-0.163 2.198-0.411 3.195-0.746l-0.124 0.036zM13.11 3.223c-0.724 0.238-1.593 0.443-2.487 0.576l-0.090 0.011c-0.228-1.002-0.508-1.867-0.856-2.697l0.040 0.107c1.347 0.349 2.499 1.050 3.39 1.998l0.003 0.004zM6.024 7.5c0.024-0.928 0.117-1.817 0.274-2.684l-0.016 0.106c0.563 0.049 1.135 0.078 1.719 0.078s1.156-0.029 1.719-0.078c0.141 0.76 0.234 1.649 0.258 2.555l0 0.023h-3.954zM9.976 8.5c-0.025 0.929-0.117 1.818-0.273 2.685l0.016-0.107c-0.563-0.049-1.136-0.078-1.72-0.078s-1.157 0.029-1.719 0.078c-0.141-0.76-0.234-1.649-0.258-2.555l-0-0.023h3.954zM7.514 1.024c0.162-0.011 0.322-0.024 0.486-0.024s0.325 0.014 0.486 0.024c0.404 0.831 0.756 1.803 1.004 2.816l0.021 0.102c-0.498 0.043-1.001 0.069-1.511 0.069s-1.013-0.026-1.51-0.070c0.269-1.115 0.621-2.087 1.064-3.007l-0.039 0.089zM6.283 1.22c-0.307 0.723-0.588 1.588-0.794 2.481l-0.021 0.109c-0.984-0.144-1.854-0.349-2.695-0.62l0.117 0.033c0.894-0.953 2.045-1.654 3.343-1.991l0.049-0.011zM2.202 4.085c0.874 0.3 1.91 0.548 2.978 0.699l0.093 0.011c-0.139 0.799-0.229 1.732-0.25 2.683l-0 0.021h-4.003c0.093-1.285 0.522-2.453 1.198-3.439l-0.015 0.024zM2.202 11.915c-0.661-0.962-1.090-2.13-1.182-3.392l-0.001-0.023h4.003c0.022 0.972 0.112 1.906 0.266 2.818l-0.016-0.114c-1.161 0.164-2.198 0.412-3.194 0.746l0.124-0.036zM2.89 12.777c0.722-0.237 1.592-0.442 2.485-0.577l0.093-0.011c0.228 1.003 0.508 1.868 0.855 2.698l-0.040-0.108c-1.347-0.35-2.498-1.050-3.39-1.998l-0.003-0.004zM8.486 14.976c-0.161 0.011-0.322 0.024-0.486 0.024s-0.324-0.013-0.486-0.024c-0.404-0.83-0.756-1.803-1.005-2.815l-0.021-0.103c0.497-0.043 1.001-0.069 1.51-0.069s1.014 0.026 1.511 0.069c-0.269 1.115-0.62 2.088-1.063 3.008l0.039-0.090zM9.717 14.78c0.306-0.722 0.587-1.587 0.794-2.479l0.022-0.111c0.984 0.145 1.853 0.35 2.694 0.621l-0.117-0.033c-0.894 0.953-2.046 1.654-3.344 1.991l-0.049 0.011zM13.798 11.915c-0.873-0.299-1.91-0.547-2.978-0.699l-0.093-0.011c0.139-0.798 0.229-1.732 0.251-2.682l0-0.022h4.002c-0.093 1.285-0.522 2.453-1.198 3.439l0.015-0.024z"></path>
</svg>

<svg width="16" height="16" viewBox="0 0 16 16" fill="rgb(34, 34, 34)" xmlns="http://www.w3.org/2000/svg"><title>sphere</title><path d="M8 0C3.582 0 0 3.582 0 8C0 12.418 3.582 16 8 16C12.418 16 16 12.418 16 8C16 3.582 12.418 0 8 0ZM13.798 4.085C14.46 5.047 14.889 6.215 14.98 7.478L14.981 7.5H10.979C10.957 6.527 10.866 5.594 10.712 4.682L10.728 4.796C11.89 4.633 12.926 4.385 13.923 4.05L13.799 4.086L13.798 4.085ZM13.11 3.223C12.386 3.461 11.517 3.666 10.623 3.799L10.533 3.81C10.305 2.808 10.025 1.943 9.677 1.113L9.717 1.22C11.064 1.569 12.216 2.27 13.107 3.218L13.11 3.222V3.223ZM6.024 7.5C6.048 6.572 6.141 5.683 6.298 4.816L6.282 4.922C6.845 4.971 7.417 5 8.001 5C8.585 5 9.157 4.971 9.72 4.922C9.861 5.682 9.954 6.571 9.978 7.477V7.5H6.024ZM9.976 8.5C9.951 9.429 9.859 10.318 9.703 11.185L9.719 11.078C9.156 11.029 8.583 11 7.999 11C7.415 11 6.842 11.029 6.28 11.078C6.139 10.318 6.046 9.429 6.022 8.523V8.5H9.976ZM7.514 1.024C7.676 1.013 7.836 1 8 1C8.164 1 8.325 1.014 8.486 1.024C8.89 1.855 9.242 2.827 9.49 3.84L9.511 3.942C9.013 3.985 8.51 4.011 8 4.011C7.49 4.011 6.987 3.985 6.49 3.941C6.759 2.826 7.111 1.854 7.554 0.934L7.515 1.023L7.514 1.024ZM6.283 1.22C5.976 1.943 5.695 2.808 5.489 3.701L5.468 3.81C4.484 3.666 3.614 3.461 2.773 3.19L2.89 3.223C3.784 2.27 4.935 1.569 6.233 1.232L6.282 1.221L6.283 1.22ZM2.202 4.085C3.076 4.385 4.112 4.633 5.18 4.784L5.273 4.795C5.134 5.594 5.044 6.527 5.023 7.478V7.499H1.02C1.113 6.214 1.542 5.046 2.218 4.06L2.203 4.084L2.202 4.085ZM2.202 11.915C1.541 10.953 1.112 9.785 1.02 8.523L1.019 8.5H5.022C5.044 9.472 5.134 10.406 5.288 11.318L5.272 11.204C4.111 11.368 3.074 11.616 2.078 11.95L2.202 11.914V11.915ZM2.89 12.777C3.612 12.54 4.482 12.335 5.375 12.2L5.468 12.189C5.696 13.192 5.976 14.057 6.323 14.887L6.283 14.779C4.936 14.429 3.785 13.729 2.893 12.781L2.89 12.777ZM8.486 14.976C8.325 14.987 8.164 15 8 15C7.836 15 7.676 14.987 7.514 14.976C7.11 14.146 6.758 13.173 6.509 12.161L6.488 12.058C6.985 12.015 7.489 11.989 7.998 11.989C8.507 11.989 9.012 12.015 9.509 12.058C9.24 13.173 8.889 14.146 8.446 15.066L8.485 14.976H8.486ZM9.717 14.78C10.023 14.058 10.304 13.193 10.511 12.301L10.533 12.19C11.517 12.335 12.386 12.54 13.227 12.811L13.11 12.778C12.216 13.731 11.064 14.432 9.766 14.769L9.717 14.78ZM13.798 11.915C12.925 11.616 11.888 11.368 10.82 11.216L10.727 11.205C10.866 10.407 10.956 9.473 10.978 8.523V8.501H14.98C14.887 9.786 14.458 10.954 13.782 11.94L13.797 11.916L13.798 11.915Z" fill="rgb(34, 34, 34)" fill-opacity="1.00"/></svg>
